app/images/dist/justwood-footer.svg

<svg width="1715" height="284" viewBox="0 0 1715 284" fill="none" xmlns="http://www.w3.org/2000/svg">
<path d="M33.1054 7.1774H88.5149V9.2884C81.4075 9.2884 76.9654 10.7427 75.1885 13.6511C73.5052 16.5596 72.6635 21.2507 72.6635 27.7245V204.063C72.6635 220.858 72.1024 233.383 70.9802 241.639C69.858 249.896 67.333 257.12 63.4053 263.312C59.4775 269.598 54.2872 274.618 47.8345 278.371C41.3817 282.124 33.8535 284 25.2499 284C17.0203 284 8.60366 282.546 0 279.637L0.280554 277.245C2.80554 278.089 6.54627 278.511 11.5027 278.511C23.6601 278.511 32.9184 274.055 39.2776 265.142C45.6368 256.229 48.8164 240.982 48.8164 219.403V28.5689C48.8164 20.0311 47.741 14.6832 45.5901 12.5253C43.5327 10.3674 39.3711 9.2884 33.1054 9.2884V7.1774Z" fill="#E4E4E4" fill-opacity="0.05"/>
<path d="M315.96 214.478H276.963V182.531C257.044 204.767 233.29 215.885 205.702 215.885C185.222 215.885 168.95 210.115 156.886 198.575C144.916 187.035 138.93 171.085 138.93 150.725V26.5986C138.93 19.0928 138.042 14.3548 136.265 12.3845C134.488 10.3204 130.327 9.2884 123.781 9.2884V7.1774H178.629V9.2884C172.831 9.2884 168.716 10.2266 166.285 12.1031C163.947 13.8857 162.778 18.2015 162.778 25.0505V138.904C162.778 162.735 168.342 179.763 179.471 189.99C190.599 200.123 203.271 205.189 217.486 205.189C239.836 205.189 259.662 195.103 276.963 174.932V34.6204C276.963 22.3297 275.888 15.0585 273.737 12.8067C271.586 10.4612 268.219 9.2884 263.637 9.2884H261.673V7.1774H315.96V9.2884C309.227 9.66369 304.972 10.7896 303.195 12.666C301.512 14.5425 300.67 18.1077 300.67 23.3617V192.242C300.67 198.903 300.997 203.266 301.652 205.33C302.307 207.394 303.616 209.13 305.58 210.537C307.637 211.851 311.097 212.507 315.96 212.507V214.478Z" fill="#E4E4E4" fill-opacity="0.05"/>
<path d="M452.366 9.85134L462.185 35.7463L460.502 36.0278C460.502 35.9339 457.883 33.1662 452.646 27.7245C447.503 22.2828 441.564 18.1077 434.831 15.1992C428.191 12.1969 420.663 10.6957 412.246 10.6957C398.125 10.6957 386.903 14.777 378.58 22.9395C370.35 31.0083 366.236 40.7658 366.236 52.2121C366.236 59.8117 368.153 66.4731 371.987 72.1962C375.915 77.8256 384.051 83.0796 396.395 87.9584C417.624 95.0889 432.119 100.484 439.881 104.143C447.737 107.708 455.265 113.806 462.466 122.438C469.76 131.07 473.407 142.141 473.407 155.651C473.407 161.28 472.753 166.675 471.443 171.835C470.134 176.902 468.03 181.828 465.131 186.613C462.232 191.304 458.725 195.619 454.61 199.56C450.589 203.407 446.474 206.362 442.266 208.426C438.057 210.396 431.418 211.898 422.346 212.93C413.275 213.962 407.29 214.478 404.391 214.478H349.262V154.244H351.366C351.553 174.228 356.229 188.161 365.394 196.042C374.559 203.923 388.82 207.863 408.178 207.863C425.76 207.863 439.086 203.688 448.157 195.338C457.322 186.988 461.904 176.949 461.904 165.221C461.904 158.091 460.315 152.039 457.135 147.066C453.955 142 449.513 137.59 443.809 133.837C438.104 129.991 427.303 125.347 411.405 119.905C395.6 114.369 384.472 109.537 378.019 105.409C371.66 101.187 366.329 94.9012 362.027 86.551C357.725 78.107 355.574 69.5223 355.574 60.7968C355.574 44.7532 361.045 31.2897 371.987 20.4063C383.022 9.52296 397.471 4.08127 415.332 4.08127C422.253 4.08127 429.734 4.87876 437.777 6.47374C445.819 8.06872 450.308 9.10076 451.243 9.56987C451.617 9.75752 451.992 9.85134 452.366 9.85134Z" fill="#E4E4E4" fill-opacity="0.05"/>
<path d="M668.028 0L658.208 25.0505H656.244C656.618 23.5494 656.806 21.5322 656.806 18.999C656.806 16.8411 656.011 15.4807 654.421 14.9177C652.924 14.261 650.493 13.9326 647.126 13.9326H593.12V191.397C593.12 198.716 593.681 203.735 594.803 206.456C596.019 209.083 597.609 210.772 599.572 211.522C601.63 212.179 604.903 212.507 609.392 212.507V214.478H553.421V212.507C560.435 212.038 564.831 210.678 566.607 208.426C568.384 206.174 569.273 201.483 569.273 194.353V13.9326H517.51C512.273 13.9326 508.86 14.261 507.27 14.9177C505.68 15.4807 504.885 16.9818 504.885 19.4212C504.885 20.6409 505.259 22.5173 506.008 25.0505H504.044L494.224 0H496.188C497.872 3.3776 499.508 5.44169 501.098 6.19227C502.781 6.84903 506.335 7.1774 511.759 7.1774H649.09C654.514 7.1774 658.395 6.84903 660.733 6.19227C663.165 5.44169 664.942 3.3776 666.064 0H668.028Z" fill="#E4E4E4" fill-opacity="0.05"/>
<path d="M891.685 217.715H888.459L831.366 59.671L775.396 217.715H772.169L704.977 32.6502C702.265 25.1444 699.366 19.3743 696.279 15.3399C693.193 11.3056 688.705 9.2884 682.813 9.2884V7.1774H731.629V9.2884C726.86 9.2884 724.475 11.0241 724.475 14.4955C724.475 16.5596 725.223 19.7027 726.72 23.9247L781.428 174.65L826.457 47.2864L822.108 35.1833C818.274 24.5814 814.58 17.6386 811.026 14.3548C807.566 10.9772 803.638 9.2884 799.243 9.2884V7.1774H847.498V9.2884C842.822 9.2884 840.484 11.3056 840.484 15.3399C840.484 16.5596 841.466 19.7965 843.43 25.0505L897.998 175.213L952.566 22.3766C952.659 22.0013 952.753 21.7668 952.846 21.6729L954.951 14.4955C954.951 11.0241 952.519 9.2884 947.656 9.2884V7.1774H977.816V9.2884C969.586 9.38223 963.087 16.0905 958.317 29.4133L891.685 217.715Z" fill="#E4E4E4" fill-opacity="0.05"/>
<path d="M1110.85 4.08127C1139.85 4.08127 1163.55 12.9475 1181.97 30.6799C1200.4 48.3185 1209.61 70.3667 1209.61 96.8246C1209.61 130.882 1198.95 159.545 1177.63 182.813C1156.3 206.081 1128.02 217.715 1092.76 217.715C1064.14 217.715 1040.72 208.332 1022.48 189.568C1004.24 170.803 995.126 148.286 995.126 122.016C995.126 104.283 999.521 86.0819 1008.31 67.4113C1017.1 48.7407 1030.34 33.5415 1048.01 21.8137C1065.69 9.99207 1086.63 4.08127 1110.85 4.08127ZM1110.01 206.737C1124.23 206.737 1138.26 202.938 1152.1 195.338C1165.94 187.645 1176.83 177.09 1184.78 163.673C1192.73 150.256 1196.7 136.464 1196.7 122.297C1196.7 102.219 1191.33 83.9709 1180.57 67.552C1169.91 51.1331 1156.02 38.2795 1138.91 28.9911C1121.89 19.7027 1106.13 15.0585 1091.64 15.0585C1071.16 15.0585 1052.55 22.7988 1035.81 38.2795C1019.16 53.7602 1010.84 72.9937 1010.84 95.9802C1010.84 125.347 1021.03 151.148 1041.42 173.384C1061.8 195.619 1084.67 206.737 1110.01 206.737Z" fill="#E4E4E4" fill-opacity="0.05"/>
<path d="M1358.92 4.08127C1387.91 4.08127 1411.62 12.9475 1430.04 30.6799C1448.46 48.3185 1457.68 70.3667 1457.68 96.8246C1457.68 130.882 1447.01 159.545 1425.69 182.813C1404.37 206.081 1376.08 217.715 1340.82 217.715C1312.21 217.715 1288.78 208.332 1270.55 189.568C1252.31 170.803 1243.19 148.286 1243.19 122.016C1243.19 104.283 1247.59 86.0819 1256.38 67.4113C1265.17 48.7407 1278.4 33.5415 1296.08 21.8137C1313.75 9.99207 1334.7 4.08127 1358.92 4.08127ZM1358.08 206.737C1372.29 206.737 1386.32 202.938 1400.16 195.338C1414 187.645 1424.9 177.09 1432.85 163.673C1440.8 150.256 1444.77 136.464 1444.77 122.297C1444.77 102.219 1439.39 83.9709 1428.64 67.552C1417.98 51.1331 1404.09 38.2795 1386.98 28.9911C1369.96 19.7027 1354.2 15.0585 1339.7 15.0585C1319.22 15.0585 1300.61 22.7988 1283.87 38.2795C1267.23 53.7602 1258.9 72.9937 1258.9 95.9802C1258.9 125.347 1269.1 151.148 1289.48 173.384C1309.87 195.619 1332.74 206.737 1358.08 206.737Z" fill="#E4E4E4" fill-opacity="0.05"/>
<path d="M1492.66 9.2884V7.1774H1587.49C1611.62 7.1774 1630.65 9.10076 1644.58 12.9475C1658.61 16.7004 1670.81 22.6581 1681.19 30.8206C1691.57 38.9832 1699.8 49.4443 1705.88 62.2042C1711.96 74.8702 1715 89.0373 1715 104.706C1715 119.811 1711.82 134.682 1705.46 149.318C1699.2 163.861 1690.64 176.433 1679.79 187.035C1668.94 197.543 1657.49 204.767 1645.42 208.708C1633.45 212.554 1614.89 214.478 1589.73 214.478H1492.66V212.507H1495.19C1500.24 212.507 1503.56 210.49 1505.15 206.456C1506.74 202.328 1507.53 194.916 1507.53 184.22V33.2131C1507.53 21.9544 1506.55 15.1523 1504.58 12.8067C1502.71 10.4612 1498.74 9.2884 1492.66 9.2884ZM1563.08 11.5401H1531.38V172.398C1531.38 182.531 1533.06 190.084 1536.43 195.057C1539.89 199.935 1545.73 203.501 1553.96 205.752C1562.19 207.91 1573.27 208.989 1587.21 208.989C1625.92 208.989 1653.09 199.044 1668.71 179.154C1684.42 159.169 1692.28 137.403 1692.28 113.853C1692.28 86.1758 1681.52 62.2042 1660.01 41.9386C1638.6 21.6729 1606.29 11.5401 1563.08 11.5401Z" fill="#E4E4E4" fill-opacity="0.05"/>
</svg>

<svg width="1715" height="284" fill="none" xmlns="http://www.w3.org/2000/svg"><path d="M33.105 7.177h55.41v2.111c-7.108 0-11.55 1.455-13.326 4.363-1.684 2.909-2.525 7.6-2.525 14.073v176.339c0 16.795-.562 29.32-1.684 37.576-1.122 8.257-3.647 15.481-7.575 21.673-3.928 6.286-9.118 11.306-15.57 15.059C41.381 282.124 33.852 284 25.25 284c-8.23 0-16.646-1.454-25.25-4.363l.28-2.392c2.526.844 6.266 1.266 11.223 1.266 12.157 0 21.415-4.456 27.775-13.369 6.359-8.913 9.538-24.16 9.538-45.739V28.569c0-8.538-1.075-13.886-3.226-16.044-2.057-2.158-6.219-3.237-12.485-3.237v-2.11ZM315.96 214.478h-38.997v-31.947c-19.919 22.236-43.673 33.354-71.261 33.354-20.48 0-36.752-5.77-48.816-17.31-11.97-11.54-17.956-27.49-17.956-47.85V26.599c0-7.506-.888-12.244-2.665-14.215-1.777-2.064-5.938-3.096-12.484-3.096v-2.11h54.848v2.11c-5.798 0-9.913.939-12.344 2.815-2.338 1.783-3.507 6.098-3.507 12.947v113.854c0 23.831 5.564 40.859 16.693 51.086 11.128 10.133 23.8 15.199 38.015 15.199 22.35 0 42.176-10.086 59.477-30.257V34.62c0-12.29-1.075-19.561-3.226-21.813-2.151-2.346-5.518-3.519-10.1-3.519h-1.964v-2.11h54.287v2.11c-6.733.376-10.988 1.502-12.765 3.378-1.683 1.877-2.525 5.442-2.525 10.696v168.88c0 6.661.327 11.024.982 13.088s1.964 3.8 3.928 5.207c2.057 1.314 5.517 1.97 10.38 1.97v1.971ZM452.366 9.851l9.819 25.895-1.683.282c0-.094-2.619-2.862-7.856-8.303-5.143-5.442-11.082-9.617-17.815-12.526-6.64-3.002-14.168-4.503-22.585-4.503-14.121 0-25.343 4.081-33.666 12.243-8.23 8.07-12.344 17.827-12.344 29.273 0 7.6 1.917 14.261 5.751 19.984 3.928 5.63 12.064 10.884 24.408 15.762 21.229 7.13 35.724 12.526 43.486 16.185 7.856 3.565 15.384 9.663 22.585 18.295 7.294 8.632 10.941 19.703 10.941 33.213 0 5.629-.654 11.024-1.964 16.184-1.309 5.067-3.413 9.993-6.312 14.778-2.899 4.691-6.406 9.006-10.521 12.947-4.021 3.847-8.136 6.802-12.344 8.866-4.209 1.97-10.848 3.472-19.92 4.504-9.071 1.032-15.056 1.548-17.955 1.548h-55.129v-60.234h2.104c.187 19.984 4.863 33.917 14.028 41.798s23.426 11.821 42.784 11.821c17.582 0 30.908-4.175 39.979-12.525 9.165-8.35 13.747-18.389 13.747-30.117 0-7.13-1.589-13.182-4.769-18.155-3.18-5.066-7.622-9.476-13.326-13.229-5.705-3.846-16.506-8.49-32.404-13.932-15.805-5.536-26.933-10.368-33.386-14.496-6.359-4.222-11.69-10.508-15.992-18.858-4.302-8.444-6.453-17.029-6.453-25.754 0-16.044 5.471-29.507 16.413-40.39C383.022 9.522 397.471 4.08 415.332 4.08c6.921 0 14.402.798 22.445 2.393 8.042 1.595 12.531 2.627 13.466 3.096.374.188.749.281 1.123.281ZM668.028 0l-9.82 25.05h-1.964c.374-1.5.562-3.518.562-6.051 0-2.158-.795-3.518-2.385-4.081-1.497-.657-3.928-.985-7.295-.985H593.12v177.464c0 7.319.561 12.338 1.683 15.059 1.216 2.627 2.806 4.316 4.769 5.066 2.058.657 5.331.985 9.82.985v1.971h-55.971v-1.971c7.014-.469 11.41-1.829 13.186-4.081 1.777-2.252 2.666-6.943 2.666-14.073V13.933H517.51c-5.237 0-8.65.328-10.24.985-1.59.563-2.385 2.064-2.385 4.503 0 1.22.374 3.096 1.123 5.63h-1.964L494.224 0h1.964c1.684 3.378 3.32 5.442 4.91 6.192 1.683.657 5.237.985 10.661.985H649.09c5.424 0 9.305-.328 11.643-.985 2.432-.75 4.209-2.814 5.331-6.192h1.964Zm223.657 217.715h-3.226L831.366 59.671l-55.97 158.044h-3.227L704.977 32.65c-2.712-7.506-5.611-13.276-8.698-17.31-3.086-4.034-7.574-6.052-13.466-6.052v-2.11h48.816v2.11c-4.769 0-7.154 1.736-7.154 5.207 0 2.065.748 5.208 2.245 9.43l54.708 150.725 45.029-127.364-4.349-12.103c-3.834-10.602-7.528-17.544-11.082-20.828-3.46-3.378-7.388-5.067-11.783-5.067v-2.11h48.255v2.11c-4.676 0-7.014 2.018-7.014 6.052 0 1.22.982 4.457 2.946 9.71l54.568 150.163 54.568-152.836c.093-.376.187-.61.28-.704l2.105-7.177c0-3.472-2.432-5.208-7.295-5.208v-2.11h30.16v2.11c-8.23.094-14.729 6.802-19.499 20.125l-66.632 188.302ZM1110.85 4.081c29 0 52.7 8.866 71.12 26.599 18.43 17.639 27.64 39.687 27.64 66.145 0 34.057-10.66 62.72-31.98 85.988-21.33 23.268-49.61 34.902-84.87 34.902-28.62 0-52.04-9.383-70.28-28.147-18.24-18.765-27.354-41.282-27.354-67.552 0-17.733 4.395-35.934 13.184-54.605 8.79-18.67 22.03-33.87 39.7-45.597 17.68-11.822 38.62-17.733 62.84-17.733Zm-.84 202.656c14.22 0 28.25-3.799 42.09-11.399 13.84-7.693 24.73-18.248 32.68-31.665 7.95-13.417 11.92-27.209 11.92-41.376 0-20.078-5.37-38.326-16.13-54.745-10.66-16.419-24.55-29.273-41.66-38.56-17.02-9.29-32.78-13.934-47.27-13.934-20.48 0-39.09 7.74-55.83 23.221-16.65 15.481-24.97 34.715-24.97 57.701 0 29.367 10.19 55.168 30.58 77.404 20.38 22.235 43.25 33.353 68.59 33.353ZM1358.92 4.081c28.99 0 52.7 8.866 71.12 26.599 18.42 17.639 27.64 39.687 27.64 66.145 0 34.057-10.67 62.72-31.99 85.988s-49.61 34.902-84.87 34.902c-28.61 0-52.04-9.383-70.27-28.147-18.24-18.765-27.36-41.282-27.36-67.552 0-17.733 4.4-35.934 13.19-54.605 8.79-18.67 22.02-33.87 39.7-45.597 17.67-11.822 38.62-17.733 62.84-17.733Zm-.84 202.656c14.21 0 28.24-3.799 42.08-11.399 13.84-7.693 24.74-18.248 32.69-31.665 7.95-13.417 11.92-27.209 11.92-41.376 0-20.078-5.38-38.326-16.13-54.745-10.66-16.419-24.55-29.273-41.66-38.56-17.02-9.29-32.78-13.934-47.28-13.934-20.48 0-39.09 7.74-55.83 23.221-16.64 15.481-24.97 34.715-24.97 57.701 0 29.367 10.2 55.168 30.58 77.404 20.39 22.235 43.26 33.353 68.6 33.353ZM1492.66 9.288v-2.11h94.83c24.13 0 43.16 1.923 57.09 5.77 14.03 3.752 26.23 9.71 36.61 17.873 10.38 8.162 18.61 18.623 24.69 31.383 6.08 12.666 9.12 26.833 9.12 42.502 0 15.105-3.18 29.976-9.54 44.612-6.26 14.543-14.82 27.115-25.67 37.717-10.85 10.508-22.3 17.732-34.37 21.673-11.97 3.846-30.53 5.77-55.69 5.77h-97.07v-1.971h2.53c5.05 0 8.37-2.017 9.96-6.051 1.59-4.128 2.38-11.54 2.38-22.236V33.213c0-11.259-.98-18.06-2.95-20.406-1.87-2.346-5.84-3.519-11.92-3.519Zm70.42 2.252h-31.7v160.858c0 10.133 1.68 17.686 5.05 22.659 3.46 4.878 9.3 8.444 17.53 10.695 8.23 2.158 19.31 3.237 33.25 3.237 38.71 0 65.88-9.945 81.5-29.835 15.71-19.985 23.57-41.751 23.57-65.301 0-27.677-10.76-51.649-32.27-71.914-21.41-20.266-53.72-30.399-96.93-30.399Z" fill="#E4E4E4" fill-opacity=".9"/></svg>
